X: 1043
T: Hicaz-Zirgüle Seyir
C: Şefik Gürmeriç
O: Turkey
F: http://compmusic.upf.edu/node/140
N: hicaz-zirgule--seyir--duyek--1--sefik_gurmeric
N: makam= hicaz-zirgule
N: form= seyir
N: usul= duyek = 8/4
M: 8/4
L: 1/16
K: C _7/8B ^1/4f ^c ^g
Q: 1/4=60
%%MIDI tuningsystem comma53
d2 d4 e2 e4 e4  | e6 f2 ed cd e4  | z2 e4 f2 g2 b2 a2 g2  | \
w:   |   |   | 
g3=f gf fe e8  | 
w:   | 
z2 a4 g2 =f3e d4  | z2 =g4 f2 e2 d2 c4  | \
w:   |   | 
z2 d4 e2 ^3/4f3e =g4  | f2 e2 d2 f2 e2 d2 c2 B2  | 
w:   |   | 
A2 A4 c2 B4 A4  | AG =F2 G2 A2 G8  | \
w:   |   | 
A6 B2 c2 d2 d2 c2  | c2 B2 B2 A2 G4 B2 BA  | 
w:   |   | 
A8 G4 {c}B2 A2  | A16  | |


